X:1
T:Hey hoe, to the greene wood, A Round of 3 Voices
C:From "Pammelia" (1609), compiled by Thomas Ravenscroft
L:1/4
M:6/4
K:Gmaj
Q:1/4=180
D2|G4 "^2"AA|B2 AG "^3"GF|G DCB,A,2|
w:Hey hoe, to the greene wood now let us goe, sing he-ave and
G,2 zGc B/2A/2|B2A G2F|G DCB,A,2|
w:hoe, and there shall we find both bucke and Doe, sing he-ave and
G,2 zDEC|D G/2G/2A/2G/2 G2F|G DCB,A,2|G,2 z2 :|
w:hoe, the Hart the Hinde, and the lit-tle pret-ty Roae sing he-ave and hoe,
